img/mail.svg

<svg width="120" height="120" viewBox="0 0 120 120" fill="none" xmlns="http://www.w3.org/2000/svg">
<path d="M108 0H12C5.4 0 0.0599999 6.75 0.0599999 15L0 105C0 113.25 5.4 120 12 120H108C114.6 120 120 113.25 120 105V15C120 6.75 114.6 0 108 0ZM105.6 31.875L63.18 65.025C61.26 66.525 58.74 66.525 56.82 65.025L14.4 31.875C13.7984 31.4528 13.2715 30.8825 12.8513 30.1984C12.4311 29.5143 12.1264 28.7308 11.9555 27.8953C11.7845 27.0597 11.751 26.1895 11.8569 25.3373C11.9629 24.4851 12.206 23.6686 12.5717 22.9373C12.9374 22.2059 13.4179 21.5749 13.9844 21.0825C14.5508 20.59 15.1912 20.2463 15.867 20.0722C16.5427 19.8981 17.2397 19.8973 17.9157 20.0696C18.5918 20.242 19.2328 20.584 19.8 21.075L60 52.5L100.2 21.075C100.767 20.584 101.408 20.242 102.084 20.0696C102.76 19.8973 103.457 19.8981 104.133 20.0722C104.809 20.2463 105.449 20.59 106.016 21.0825C106.582 21.5749 107.063 22.2059 107.428 22.9373C107.794 23.6686 108.037 24.4851 108.143 25.3373C108.249 26.1895 108.215 27.0597 108.045 27.8953C107.874 28.7308 107.569 29.5143 107.149 30.1984C106.728 30.8825 106.202 31.4528 105.6 31.875Z" fill="white"/>
</svg>

<svg xmlns="http://www.w3.org/2000/svg" width="120" height="120" fill="none"><path fill="#fff" d="M108 0H12C5.4 0 .06 6.75.06 15L0 105c0 8.25 5.4 15 12 15h96c6.6 0 12-6.75 12-15V15c0-8.25-5.4-15-12-15Zm-2.4 31.875-42.42 33.15c-1.92 1.5-4.44 1.5-6.36 0L14.4 31.875a5.64 5.64 0 0 1-1.549-1.677 7.14 7.14 0 0 1-.896-2.303 7.928 7.928 0 0 1-.098-2.558c.106-.852.349-1.668.715-2.4a6.004 6.004 0 0 1 1.412-1.855 4.64 4.64 0 0 1 1.883-1.01 4.104 4.104 0 0 1 2.049-.002 4.636 4.636 0 0 1 1.884 1.005L60 52.5l40.2-31.425a4.634 4.634 0 0 1 1.884-1.005 4.105 4.105 0 0 1 2.049.002 4.644 4.644 0 0 1 1.883 1.01 5.999 5.999 0 0 1 1.412 1.855 7.42 7.42 0 0 1 .715 2.4 7.954 7.954 0 0 1-.098 2.558 7.146 7.146 0 0 1-.896 2.303 5.646 5.646 0 0 1-1.549 1.677Z"/></svg>
